X: 24812
T: Maggie On The Shore
R: reel
M: 4/4
K: Gmajor
GGGA Bz BA|B2 GB AGED|FGGA B2 BA|GABG A2 FA|
GGGB dGBd|B2 GB AGED|FGGA B2 AB|GABG A2 F2||
fggd edgd|edgd ABBd|fggd deef|gedB BAAA|
fggd edgd|edgd ABBd|gd B/c/d ed B/c/d eaaf gedB||

